app/assets/v2/images/results/calendar_icon.svg

<svg width="95" height="79" xmlns="http://www.w3.org/2000/svg"><g fill="none" fill-rule="evenodd"><path d="M93 2.5H2c-.839 0-1.5.599-1.5 1.312v73.376c0 .713.661 1.312 1.5 1.312h91c.839 0 1.5-.599 1.5-1.312V3.812c0-.713-.661-1.312-1.5-1.312z" stroke="#15003E" fill="#F9006C"/><path fill="#EFF4EE" d="M1 21h93v57H1z"/><path d="M.5 21h94M.5 35h94M.5 50h94M.5 64h94m-82-42.317V78.5m13-56.817V78.5m13-56.817V77.5m14-55.817V78.5m14-56.817V78.5m14-56.817V78.5" stroke="#15003E" stroke-linecap="square"/><g stroke="#0FCE7C" stroke-linecap="round" stroke-width="2"><path d="M55.915 57.383c1.244.826 2.065 1.43 2.464 1.814.4.384.78.934 1.141 1.651"/><path d="M67.375 52.51c-1.698 1.35-2.983 2.485-3.853 3.404-.87.919-2.218 2.563-4.042 4.934"/></g><g transform="translate(16 1)"><circle fill="#15003E" cx="3" cy="8" r="3"/><circle fill="#15003E" cx="29" cy="8" r="3"/><circle fill="#15003E" cx="53" cy="8" r="3"/><path d="M3.5.5v6m26-6v6m24-6v6" stroke="#15003E" stroke-width="3" stroke-linecap="round"/></g><path d="M44.5 36.5l4 5m-.103-5.079l-3.794 5.158M60.5 36.5l4 5m10-4l4 5m-.706-5.5L74 42.158M88.5 37.5l4 5m-.706-5.5L88 42.158M19.5 52.5l4 5m-.706-5.5L19 57.158M33.5 52.5l4 5m-.706-5.5L33 57.158M46.5 52.5l4 5m-.706-5.5L46 57.158M6.5 52.5l4 5M9.794 52L6 57.158m58.397-20.737l-3.794 5.158" stroke="#F9006C" stroke-linecap="round"/></g></svg>

<svg width="95" height="79" xmlns="http://www.w3.org/2000/svg"><g fill="none" fill-rule="evenodd"><path d="M93 2.5H2c-.839 0-1.5.599-1.5 1.312v73.376c0 .713.661 1.312 1.5 1.312h91c.839 0 1.5-.599 1.5-1.312V3.812c0-.713-.661-1.312-1.5-1.312z" stroke="#15003E" fill="#F9006C"/><path fill="#EFF4EE" d="M1 21h93v57H1z"/><g stroke="#15003E" stroke-linecap="square"><path d="M.5 21h94M.5 35h94M.5 50h94M.5 64h94M12.5 21.683V78.5M25.5 21.683V78.5M38.5 21.683V77.5M52.5 21.683V78.5M66.5 21.683V78.5M80.5 21.683V78.5"/></g><g stroke="#0FCE7C" stroke-linecap="round" stroke-width="2"><path d="M55.915 57.383c1.244.826 2.065 1.43 2.464 1.814.4.384.78.934 1.141 1.651"/><path d="M67.375 52.51c-1.698 1.35-2.983 2.485-3.853 3.404-.87.919-2.218 2.563-4.042 4.934"/></g><g transform="translate(16 1)"><circle fill="#15003E" cx="3" cy="8" r="3"/><circle fill="#15003E" cx="29" cy="8" r="3"/><circle fill="#15003E" cx="53" cy="8" r="3"/><path d="M3.5.5v6M29.5.5v6M53.5.5v6" stroke="#15003E" stroke-width="3" stroke-linecap="round"/></g><g stroke="#F9006C" stroke-linecap="round"><path d="M44.5 36.5l4 5M48.397 36.421l-3.794 5.158M60.5 36.5l4 5M74.5 37.5l4 5M77.794 37L74 42.158M88.5 37.5l4 5M91.794 37L88 42.158M19.5 52.5l4 5M22.794 52L19 57.158M33.5 52.5l4 5M36.794 52L33 57.158M46.5 52.5l4 5M49.794 52L46 57.158M6.5 52.5l4 5M9.794 52L6 57.158M64.397 36.421l-3.794 5.158"/></g></g></svg>
